X: 14072
T: Freddy Kimmel's
R: hornpipe
M: 4/4
K: Gmajor
|:DC|B,DBA GFED|CEAB cBAG|FEDd cDEF|(3GAG (3FGF (3EFE DC|
B,DBA GFED|CEAB cBAG|FEDd cDEF|G2B2 G2:|
|:(3DEF|G2~G,2 G,B,DG|E2C2 A,B,CG|(3FGF (3EFE DCB,A,|G,A,B,C DEFD|
G2~G,2 G,B,DG|E2C2 A,3G|(3FGF (3EFE DEFD|G2B2 G2:|
|:dc|~B2GA ~B2GA|Bd~d2 edBG|(3FED AD BDAD|(3EFG Ac edcA|
~B2GA ~B2GA|Bd~d2 edBG|(3EFG Ac edcA|G2B2 G2:|

